X: 1
P: The Battle of the Boyne
C: Paddledoo/PW Colln
C: arr. T. Traub 8-31-2005
M: 4/4
L: 1/8
K: D
|: Bd|"Am"e2 A2 e2 g2|"G"dcBA G2 Bd|"Am"e2 A2 e2 dB|"Am"B2 A2 A2 Bd|"Am"e2 A2 e2 g2|
"G"dcBA G2 Bd|"Am"e2 A2 "Em"e2 dB|"Am"A4 A2 :||: B2|"G"G2 g2 g3 a|gage d3 g|"Am"e2 a2 a2 g/a/b|
"Am"a4 e3 f|"C"g3 a g2 e2| [1 "G"dcBA G2 Bd|"Am"e2 A2 "Em"e2 dB|"Am"A4 A2 :| \
[2 "G"dcBA G2 AB|"C"c2 BA "Em"e2 dB|"Am"A4 A2 |]
